epam-assets/icon-sources/18/content-edit_redo.svg

<svg width="18" height="18" viewBox="0 0 18 18" fill="none" xmlns="http://www.w3.org/2000/svg">
<g id="18/content-edit_redo">
<path id="icon" d="M1.125 10.25C1.125 9.3125 1.303 8.43425 1.659 7.61525C2.0155 6.79675 2.497 6.08425 3.1035 5.47775C3.7095 4.87175 4.422 4.3905 5.241 4.034C6.0595 3.678 6.9375 3.5 7.875 3.5C8.8125 3.5 9.69075 3.678 10.5098 4.034C11.3283 4.3905 12.0408 4.87175 12.6473 5.47775C13.2533 6.08425 13.7343 6.79675 14.0903 7.61525C14.4468 8.43425 14.625 9.3125 14.625 10.25V10.3625L15.7875 9.2L16.875 10.25L13.875 13.25L10.875 10.25L11.9625 9.2L13.125 10.3625V10.25C13.125 8.7875 12.6158 7.547 11.5973 6.5285C10.5783 5.5095 9.3375 5 7.875 5C6.4125 5 5.172 5.5095 4.1535 6.5285C3.1345 7.547 2.625 8.7875 2.625 10.25H1.125Z" fill="#6C6F80"/>
</g>
</svg>

<svg xmlns="http://www.w3.org/2000/svg" width="18" height="18" fill="none" viewBox="0 0 18 18">
  <path fill="#6C6F80" d="M1.125 10.25c0-.938.178-1.816.534-2.635a6.869 6.869 0 0 1 1.444-2.137 6.864 6.864 0 0 1 2.138-1.444A6.532 6.532 0 0 1 7.875 3.5c.938 0 1.816.178 2.635.534a6.875 6.875 0 0 1 2.137 1.444 6.865 6.865 0 0 1 1.443 2.137c.357.82.535 1.697.535 2.635v.113L15.787 9.2l1.088 1.05-3 3-3-3 1.088-1.05 1.162 1.163v-.113c0-1.463-.51-2.703-1.528-3.721C10.578 5.508 9.337 5 7.875 5c-1.463 0-2.703.51-3.721 1.529-1.02 1.018-1.529 2.258-1.529 3.721h-1.5Z"/>
</svg>
